X:1

T:Why Did You Promise to Marry

M:9/8

L:1/8

R:Jig

S:William Vickers music manuscript collection (Northumberland, 1770)

K:D

A|d2d ded c2A|d2d def gec|d2d dfd c2A|BGB Bcd ecA:|

|:f2d dfd c2A|f2d def gfe|agf ege c2A|BGB Bcd ecA:|

|:afd afd c2A|afd afd efg|afd (e/f/g)d c2A|BGB Bcd ecA:|

                       

WHY DIDN'T I LOVE MAIRE? (Tuige gan Grá a'm do Mháire?). Irish, Slip Jig. G Major. Standard tuning. AAB. Breathnach gives this verse to the tune from Tim Leahy:

***

Why didn't I love Maire?

Why didn't she love me?

Why didn't I love Maire,

Better than anybody?

***

She has twenty cows,

And I have only four.

Buckle them up together

And that’ll make twenty-four.

***

Breathnach (1985) finds the ‘B’ part similar to that of “The Beesom.” Source for notated version: fiddler Mickey Burke, 1968 (Listowel, Co. Kerry, Ireland) [Breathnach]. Breathnach (CRÉ II), 1976; No. 96, pg. 52.

 

WHY DO YOU LEAVE ME? Irish, Slow Air (4/4 time). F Major. Standard tuning. AB. Source for notated version: Patrick MacDowell, "the distinguished sculptor: born in Belfast 1799: died in 1870" (Joyce). Joyce (Old Irish Folk Music and Songs), 1909; No. 512, pg. 278.

 

WHY DON'T YOU SHOVEL? Old-Time, Breakdown. C Major. Standard tuning. AABB. Source for notated version: Lynn “Chirps” Smith [Phillips]. Phillips (Traditional American Fiddle Tunes, vol. 1), 1994; pg. 257.

 


WHY IS YOUR FAITHFUL SLAVE DISDAINED (Bononcini). English, Air. The air was published by John Gay in his Beggar's Opera (1729), where it appears under the title "If love the virgin's heart invade." It also appears ("in an indifferent form," says Kidson {1922}) in Pills to Purge Melancholy, vol. III, 1719; Pulver (1923) indicates this popular melody found its way, under different titles, into many ballad operas of the early 18th century. Raven (English Country Dance Tunes), 1984; pg. 51.

 

WHY HOW NOW, MADAM FLIRT. AKA and see "Gossip Joan," "Good morrow, Gossip Joan."  English, Air. The tune appears under the above title in John Gay's Beggar's Opera of 1728.

 

WHY SHOULD I BE SO SAD ON MY WEDDING DAY?  Scottish, Air. The melody was reputedly rung out by the bells of St. Giles in Edinburgh to signal the Union between Scotland and England in 1707. An apparently deliberate expression of ambivalence.

 

WHY SHOULD I NOT LIKE MY LOVE?  English, Scottish; Country Dance Tune (9/8). England, Northumberland. A Minor. Standard tuning. AB. The title (as “Why Should I Not Love My Love”) appears in Henry Robson's list of popular Northumbrian song and dance tunes ("The Northern Minstrel's Budget"), which he published c. 1800. Aird (Selections of Scotch, English, Irish and Foreign Airs), vol. II, 1785; No. 149, pg. 55.

